X: 222
T: Aaron's Key
R: jig
C:Paul Roche / Stockton’s Wing
M: 6/8
L: 1/8
K:Bmin
"Bm"FBB Bcd|"A"cAA ABc|"Bm"dBB Bcd|"A"edc "G"BAG|
"Bm"FBB Bcd|"A"cAA ABc|"Bm(D)"dcd "A"efg|"Bm"fdB B2A|
"Bm"F2B Bcd|"A"cAA ABc|"Bm"dBB Bcd|"A"ede efg|
"Bm(D)"~f3 fed|"A" c2A ABc|"Bm"dcd "A"ede|"Bm"fdB B2c||
"D"d3 def|"A"ecA a2g|"D"~f3 fed|"A"cec ABc|
"Bm"BAB "A"cBc|"D"dcd "A"efg|"D"fed "A"cBA|1 "Bm"B3 B2c:|2 B2B B2A|


